**kern	**kern
*staff2	*staff1
*clefF4	*clefG2
*k[b-]	*k[b-]
*M3/8	*M3/8
*F:	*F:
=1-	=1-
8F 8A 8c	8fL
8r	8a
8F 8A 8c	8fJ
=2	=2
8C 8E 8G 8c	16ccLL
.	16b
8r	16cc
.	16ddJ
8r	8ccJ
=3	=3
8C 8E 8G 8c	8b-L
8r	8g
8C 8E 8G 8c	8ccJ
=4	=4
8F 8A 8c	8aL
8r	16gL
.	16aJ
8r	8fJ
=5	=5
8F 8A 8c	8fL
8r	8a
8F 8A 8c	8bJ
=6	=6
8E 8G 8c	16ccLL
.	16b
8r	16cc
.	16ddJ
8C	8eeJ
=7	=7
8FL	8fL 8a 8dd
8G	8e 8g 8cc
8GGJ	8dJ 8f 8g 8b
=8	=8
4.C;	4.e; 4.g; 4.cc;
=9	=9
*-	*-
